public/logos/jupyter.svg

<svg height="51" viewBox="0 0 44 51" width="44" xmlns="http://www.w3.org/2000/svg"><g fill="#4e4e4e"><path d="m1.74498 5.47533c0 1.55802-.12464 2.06549-.44515 2.43941-.356711.32121-.819806.49884-1.29983.49857l.124642.89029c.744198.01006 1.466308-.25282 2.029878-.73894.30323-.36979.52888-.79685.66348-1.25573.13461-.45888.17541-.94017.11998-1.41516v-5.89377h-1.193v5.43972z" transform="translate(.54 21.36)"/><path d="m5.50204 4.76309c0 .66772 0 1.26422.05341 1.78059h-1.05945l-.07122-1.05945c-.2216.37486-.53851.68435-.9185.89702-.38.21267-.80953.32094-1.24493.31378-1.03274 0-2.26135-.56088-2.26135-2.84895v-3.8015651h1.193v3.5611851c0 1.23752.38283 2.06549 1.46009 2.06549.22163.00239.4415-.03951.64673-.12323s.39167-.20757.5484-.3643c.15672-.15672.28058-.34317.3643-.54839.08371-.20523.12561-.42511.12323-.64674v-3.98853h1.19299v4.72748z" transform="translate(5.68 21.37)"/><path d="m.0534178 2.27264c0-.82798 0-1.504604-.0534178-2.118909h1.06836l.05341 1.112869c.23803-.402065.5807-.732006.99148-.954646.41079-.2226395.87429-.3296326 1.3411-.30957305 1.58473 0 2.77773 1.32653905 2.77773 3.30299905 0 2.33258-1.43338 3.48997-2.9825 3.48997-.39649.01769-.79084-.06725-1.14489-.24661-.35405-.17937-.65581-.44708-.87608-.77723v3.56118h-1.1751922v-7.03334zm1.1751922 1.73608c.00323.16154.02111.32245.05342.48076.10101.39531.33096.74565.65345.99558.3225.24994.71913.3852 1.12714.38438 1.25532 0 1.99427-1.02384 1.99427-2.51064 0-1.29983-.69443-2.412704-1.94975-2.412704-.49678.040681-.96166.261164-1.30749.620104s-.54886.8317-.57104 1.32965z" transform="translate(13.39 21.26)"/><path d="m1.31764.0178059 1.43338 3.8371841c.15135.42734.3116.94371.41844 1.32654.12464-.39173.25818-.8903.41844-1.35325l1.29983-3.8104741h1.25532l-1.78059 4.6295441c-.8903 2.22574-1.43338 3.37423-2.25246 4.06866-.41255.37682-.91552.64057-1.460083.76565l-.293798-.99713c.380767-.12511.734261-.32149 1.041651-.57869.43433-.35396.77901-.8054 1.00603-1.31764.04859-.08871.08171-.18506.09793-.2849-.01012-.10744-.03716-.2126-.08012-.3116l-2.42161-5.9917h1.29983z" transform="translate(20.43 21.39)"/><path d="m2.19013 0v1.86962h1.70937v.8903h-1.70937v3.50777c0 .80127.23148 1.26422.8903 1.26422.23399.00383.46746-.02311.69443-.08012l.05342.89029c-.34034.11791-.69947.17223-1.05946.16026-.2384.01492-.47721-.02191-.70004-.10797s-.4244-.21931-.59089-.3906c-.36264-.48504-.528064-1.08946-.46295-1.69156v-3.56119h-1.01494v-.8903h1.03274v-1.584728z" transform="translate(27.55 19.54)"/><path d="m1.17716 3.57899c-.02416.30194.01752.60552.12217.88977s.26977.54238.48396.75656c.21418.21419.47231.37931.75656.48396s.58783.14633.88977.12217c.61071.01366 1.21744-.10162 1.78059-.33832l.20477.8903c-.69105.28466-1.43413.42115-2.18123.40063-.43554.02982-.87237-.03492-1.28053-.18979-.40817-.15486-.778-.39618-1.084149-.70739-.306143-.31122-.541348-.68498-.68948-1.09563-.1481326-.41066-.2056872-.84849-.1687162-1.28348 0-1.95865 1.1662852-3.50777 3.0715252-3.50777 2.13671 0 2.67089 1.86962 2.67089 3.06262.01142.18382.01142.36817 0 .55199h-4.60283zm3.48997-.89029c.03436-.23803.0173-.48065-.05004-.71152-.06733-.23087-.18337-.44463-.34029-.62687-.15693-.18223-.35109-.32871-.56941-.429566-.21832-.100854-.45573-.153738-.69621-.155088-.48917.035408-.94747.252224-1.28509.607964-.33762.35573-.53021.82473-.54002 1.31508z" transform="translate(32.47 21.29)"/><path d="m.0534178 2.19228c0-.76565 0-1.424474-.0534178-2.029876h1.06836v1.273126h.05341c.11214-.39294.34383-.741216.66291-.996481.31908-.255266.70972-.404853 1.11769-.4279952.11229-.01473839.22602-.01473839.33831 0v1.1128762c-.13606-.01576-.27348-.01576-.40954 0-.40414.01565-.78877.17789-1.08204.45642-.29327.27852-.47512.65427-.51159 1.05708-.03329.18217-.05116.36682-.05341.55198v3.46326h-1.17519703v-4.45149z" transform="translate(39.98 21.24)"/></g><path d="m6.03059 2.83565c.03656.59811-.10574 1.19356-.40879 1.7105-.30305.51695-.75311.93198-1.29287 1.19224-.53976.26025-1.14477.35394-1.73796.26914-.59319-.08481-1.14771-.34427-1.592922-.74534-.445211-.40106-.760958-.92558-.9070173-1.50673-.1460594-.58115-.1158198-1.19263.0868663-1.75653.202686-.5639.568644-1.054709 1.051253-1.409893.48261-.355184 1.06003-.5586684 1.65869-.58453157.39251-.02159863.78542.03460897 1.15612.16539057.37071.130781.71191.333557 1.00398.596665.29206.263109.52924.581359.69788.936449s.26542.74002.28477 1.13264z" fill="#767677" transform="translate(33.48 .69)"/><path d="m18.6962 7.12238c-8.0126 0-15.05489-2.87566-18.6962-7.12238 1.41284 3.82041 3.96215 7.1163 7.30479 9.44404 3.34261 2.32776 7.31821 3.57556 11.39141 3.57556 4.0733 0 8.0488-1.2478 11.3915-3.57556 3.3426-2.32774 5.8919-5.62363 7.3048-9.44404-3.6324 4.24672-10.648 7.12238-18.6963 7.12238z" fill="#f37726" transform="translate(3.21 31.27)"/><path d="m18.6962 5.89725c8.0127 0 15.055 2.87566 18.6963 7.12235-1.4129-3.82038-3.9622-7.11627-7.3048-9.44401-3.3427-2.32774-7.3182-3.57559-11.3915-3.57559-4.0732 0-8.0488 1.24785-11.39141 3.57559-3.34264 2.32774-5.89195 5.62363-7.30479 9.44401 3.64131-4.25559 10.648-7.12235 18.6962-7.12235z" fill="#f37726" transform="translate(3.21 4.88)"/><path d="m7.59576 3.56656c.047.75336-.13134 1.50366-.51229 2.1553-.38096.65164-.94728 1.17512-1.62681 1.50375s-1.44151.44753-2.18885.34155c-.74735-.10599-1.44623-.43205-2.0076-.93665-.561371-.5046-.959816-1.1649-1.144573-1.89676-.1847561-.73187-.1474589-1.50216.10714-2.21276.254599-.71059.714973-1.3293 1.322463-1.777305.6075-.448007 1.33461-.7050255 2.0887-.73830911.49399-.02642299.98835.04474141 1.45484.20942711.46648.164687.89595.419667 1.26386.750376.36791.330711.66707.730661.88036 1.177021.2133.44635.33657.93036.36276 1.42436z" fill="#9e9e9e" transform="translate(3.28 43.09)"/><path d="m2.25061 4.37943c-.43175.01192-.85739-.10408-1.22339-.33341-.365996-.22934-.656014-.56178-.833579-.9555-.1775648-.39373-.2347488-.83117-.1643606-1.25731s.2652056-.82196.5599526-1.137668c.294748-.315712.676267-.537226 1.096577-.6366843.4203-.0994582.86063-.0724199 1.26562.0777143.40498.150135.75653.416662 1.01043.766064.25391.349404.39884.766084.41656 1.197634.01687.58353-.19711 1.15017-.59549 1.57688-.39838.42672-.94901.67908-1.53232.70228z" fill="#616262" transform="translate(1.87 5.43)"/></svg>

<svg width="44" height="51" viewBox="0 0 44 51" version="2.0" xmlns="http://www.w3.org/2000/svg" xmlns:xlink="http://www.w3.org/1999/xlink" xmlns:figma="http://www.figma.com/figma/ns">
<title>Group.svg</title>
<desc>Created using Figma 0.90</desc>
<g id="Canvas" transform="translate(-1640 -2453)" figma:type="canvas">
<g id="Group" style="mix-blend-mode:normal;" figma:type="group">
<g id="Group" style="mix-blend-mode:normal;" figma:type="group">
<g id="Group" style="mix-blend-mode:normal;" figma:type="group">
<g id="g" style="mix-blend-mode:normal;" figma:type="group">
<g id="path" style="mix-blend-mode:normal;" figma:type="group">
<g id="path9 fill" style="mix-blend-mode:normal;" figma:type="vector">
<use xlink:href="#path0_fill" transform="translate(1640.54 2474.36)" fill="#4E4E4E" style="mix-blend-mode:normal;"/>
</g>
</g>
<g id="path" style="mix-blend-mode:normal;" figma:type="group">
<g id="path10 fill" style="mix-blend-mode:normal;" figma:type="vector">
<use xlink:href="#path1_fill" transform="translate(1645.68 2474.37)" fill="#4E4E4E" style="mix-blend-mode:normal;"/>
</g>
</g>
<g id="path" style="mix-blend-mode:normal;" figma:type="group">
<g id="path11 fill" style="mix-blend-mode:normal;" figma:type="vector">
<use xlink:href="#path2_fill" transform="translate(1653.39 2474.26)" fill="#4E4E4E" style="mix-blend-mode:normal;"/>
</g>
</g>
<g id="path" style="mix-blend-mode:normal;" figma:type="group">
<g id="path12 fill" style="mix-blend-mode:normal;" figma:type="vector">
<use xlink:href="#path3_fill" transform="translate(1660.43 2474.39)" fill="#4E4E4E" style="mix-blend-mode:normal;"/>
</g>
</g>
<g id="path" style="mix-blend-mode:normal;" figma:type="group">
<g id="path13 fill" style="mix-blend-mode:normal;" figma:type="vector">
<use xlink:href="#path4_fill" transform="translate(1667.55 2472.54)" fill="#4E4E4E" style="mix-blend-mode:normal;"/>
</g>
</g>
<g id="path" style="mix-blend-mode:normal;" figma:type="group">
<g id="path14 fill" style="mix-blend-mode:normal;" figma:type="vector">
<use xlink:href="#path5_fill" transform="translate(1672.47 2474.29)" fill="#4E4E4E" style="mix-blend-mode:normal;"/>
</g>
</g>
<g id="path" style="mix-blend-mode:normal;" figma:type="group">
<g id="path15 fill" style="mix-blend-mode:normal;" figma:type="vector">
<use xlink:href="#path6_fill" transform="translate(1679.98 2474.24)" fill="#4E4E4E" style="mix-blend-mode:normal;"/>
</g>
</g>
</g>
</g>
<g id="g" style="mix-blend-mode:normal;" figma:type="group">
<g id="path" style="mix-blend-mode:normal;" figma:type="group">
<g id="path16 fill" style="mix-blend-mode:normal;" figma:type="vector">
<use xlink:href="#path7_fill" transform="translate(1673.48 2453.69)" fill="#767677" style="mix-blend-mode:normal;"/>
</g>
</g>
<g id="path" style="mix-blend-mode:normal;" figma:type="group">
<g id="path17 fill" style="mix-blend-mode:normal;" figma:type="vector">
<use xlink:href="#path8_fill" transform="translate(1643.21 2484.27)" fill="#F37726" style="mix-blend-mode:normal;"/>
</g>
</g>
<g id="path" style="mix-blend-mode:normal;" figma:type="group">
<g id="path18 fill" style="mix-blend-mode:normal;" figma:type="vector">
<use xlink:href="#path9_fill" transform="translate(1643.21 2457.88)" fill="#F37726" style="mix-blend-mode:normal;"/>
</g>
</g>
<g id="path" style="mix-blend-mode:normal;" figma:type="group">
<g id="path19 fill" style="mix-blend-mode:normal;" figma:type="vector">
<use xlink:href="#path10_fill" transform="translate(1643.28 2496.09)" fill="#9E9E9E" style="mix-blend-mode:normal;"/>
</g>
</g>
<g id="path" style="mix-blend-mode:normal;" figma:type="group">
<g id="path20 fill" style="mix-blend-mode:normal;" figma:type="vector">
<use xlink:href="#path11_fill" transform="translate(1641.87 2458.43)" fill="#616262" style="mix-blend-mode:normal;"/>
</g>
</g>
</g>
</g>
</g>
</g>
<defs>
<path id="path0_fill" d="M 1.74498 5.47533C 1.74498 7.03335 1.62034 7.54082 1.29983 7.91474C 0.943119 8.23595 0.480024 8.41358 0 8.41331L 0.124642 9.3036C 0.86884 9.31366 1.59095 9.05078 2.15452 8.56466C 2.45775 8.19487 2.6834 7.76781 2.818 7.30893C 2.95261 6.85005 2.99341 6.36876 2.93798 5.89377L 2.93798 0L 1.74498 0L 1.74498 5.43972L 1.74498 5.47533Z"/>
<path id="path1_fill" d="M 5.50204 4.76309C 5.50204 5.43081 5.50204 6.02731 5.55545 6.54368L 4.496 6.54368L 4.42478 5.48423C 4.20318 5.85909 3.88627 6.16858 3.50628 6.38125C 3.12628 6.59392 2.69675 6.70219 2.26135 6.69503C 1.22861 6.69503 0 6.13415 0 3.84608L 0 0.0445149L 1.193 0.0445149L 1.193 3.6057C 1.193 4.84322 1.57583 5.67119 2.65309 5.67119C 2.87472 5.67358 3.09459 5.63168 3.29982 5.54796C 3.50505 5.46424 3.69149 5.34039 3.84822 5.18366C 4.00494 5.02694 4.1288 4.84049 4.21252 4.63527C 4.29623 4.43004 4.33813 4.21016 4.33575 3.98853L 4.33575 0L 5.52874 0L 5.52874 4.72748L 5.50204 4.76309Z"/>
<path id="path2_fill" d="M 0.0534178 2.27264C 0.0534178 1.44466 0.0534178 0.768036 0 0.153731L 1.06836 0.153731L 1.12177 1.2666C 1.3598 0.864535 1.70247 0.534594 2.11325 0.311954C 2.52404 0.0893145 2.98754 -0.0176786 3.45435 0.00238095C 5.03908 0.00238095 6.23208 1.32892 6.23208 3.30538C 6.23208 5.63796 4.7987 6.79535 3.24958 6.79535C 2.85309 6.81304 2.45874 6.7281 2.10469 6.54874C 1.75064 6.36937 1.44888 6.10166 1.22861 5.77151L 1.22861 5.77151L 1.22861 9.33269L 0.0534178 9.33269L 0.0534178 2.29935L 0.0534178 2.27264ZM 1.22861 4.00872C 1.23184 4.17026 1.24972 4.33117 1.28203 4.48948C 1.38304 4.88479 1.61299 5.23513 1.93548 5.48506C 2.25798 5.735 2.65461 5.87026 3.06262 5.86944C 4.31794 5.86944 5.05689 4.8456 5.05689 3.3588C 5.05689 2.05897 4.36246 0.946096 3.10714 0.946096C 2.61036 0.986777 2.14548 1.20726 1.79965 1.5662C 1.45382 1.92514 1.25079 2.3979 1.22861 2.89585L 1.22861 4.00872Z"/>
<path id="path3_fill" d="M 1.31764 0.0178059L 2.75102 3.85499C 2.90237 4.28233 3.06262 4.7987 3.16946 5.18153C 3.2941 4.7898 3.42764 4.29123 3.5879 3.82828L 4.88773 0.0178059L 6.14305 0.0178059L 4.36246 4.64735C 3.47216 6.87309 2.92908 8.02158 2.11 8.71601C 1.69745 9.09283 1.19448 9.35658 0.649917 9.48166L 0.356119 8.48453C 0.736886 8.35942 1.09038 8.16304 1.39777 7.90584C 1.8321 7.55188 2.17678 7.10044 2.4038 6.5882C 2.45239 6.49949 2.48551 6.40314 2.50173 6.3033C 2.49161 6.19586 2.46457 6.0907 2.42161 5.9917L 0 0L 1.29983 0L 1.31764 0.0178059Z"/>
<path id="path4_fill" d="M 2.19013 0L 2.19013 1.86962L 3.8995 1.86962L 3.8995 2.75992L 2.19013 2.75992L 2.19013 6.26769C 2.19013 7.06896 2.42161 7.53191 3.08043 7.53191C 3.31442 7.53574 3.54789 7.5088 3.77486 7.45179L 3.82828 8.34208C 3.48794 8.45999 3.12881 8.51431 2.76882 8.50234C 2.53042 8.51726 2.29161 8.48043 2.06878 8.39437C 1.84595 8.30831 1.64438 8.17506 1.47789 8.00377C 1.11525 7.51873 0.949826 6.91431 1.01494 6.31221L 1.01494 2.75102L 0 2.75102L 0 1.86072L 1.03274 1.86072L 1.03274 0.275992L 2.19013 0Z"/>
<path id="path5_fill" d="M 1.17716 3.57899C 1.153 3.88093 1.19468 4.18451 1.29933 4.46876C 1.40398 4.75301 1.5691 5.01114 1.78329 5.22532C 1.99747 5.43951 2.2556 5.60463 2.53985 5.70928C 2.8241 5.81393 3.12768 5.85561 3.42962 5.83145C 4.04033 5.84511 4.64706 5.72983 5.21021 5.49313L 5.41498 6.38343C 4.72393 6.66809 3.98085 6.80458 3.23375 6.78406C 2.79821 6.81388 2.36138 6.74914 1.95322 6.59427C 1.54505 6.43941 1.17522 6.19809 0.869071 5.88688C 0.562928 5.57566 0.327723 5.2019 0.179591 4.79125C 0.0314584 4.38059 -0.0260962 3.94276 0.0108748 3.50777C 0.0108748 1.54912 1.17716 0 3.0824 0C 5.21911 0 5.75329 1.86962 5.75329 3.06262C 5.76471 3.24644 5.76471 3.43079 5.75329 3.61461L 1.15046 3.61461L 1.17716 3.57899ZM 4.66713 2.6887C 4.70149 2.45067 4.68443 2.20805 4.61709 1.97718C 4.54976 1.74631 4.43372 1.53255 4.2768 1.35031C 4.11987 1.16808 3.92571 1.0216 3.70739 0.920744C 3.48907 0.81989 3.25166 0.767006 3.01118 0.765656C 2.52201 0.801064 2.06371 1.01788 1.72609 1.37362C 1.38847 1.72935 1.19588 2.19835 1.18607 2.6887L 4.66713 2.6887Z"/>
<path id="path6_fill" d="M 0.0534178 2.19228C 0.0534178 1.42663 0.0534178 0.767806 0 0.162404L 1.06836 0.162404L 1.06836 1.43553L 1.12177 1.43553C 1.23391 1.04259 1.4656 0.694314 1.78468 0.439049C 2.10376 0.183783 2.4944 0.034196 2.90237 0.0110538C 3.01466 -0.00368459 3.12839 -0.00368459 3.24068 0.0110538L 3.24068 1.12393C 3.10462 1.10817 2.9672 1.10817 2.83114 1.12393C 2.427 1.13958 2.04237 1.30182 1.7491 1.58035C 1.45583 1.85887 1.27398 2.23462 1.23751 2.63743C 1.20422 2.8196 1.18635 3.00425 1.1841 3.18941L 1.1841 6.65267L 0.00890297 6.65267L 0.00890297 2.20118L 0.0534178 2.19228Z"/>
<path id="path7_fill" d="M 6.03059 2.83565C 6.06715 3.43376 5.92485 4.02921 5.6218 4.54615C 5.31875 5.0631 4.86869 5.47813 4.32893 5.73839C 3.78917 5.99864 3.18416 6.09233 2.59097 6.00753C 1.99778 5.92272 1.44326 5.66326 0.998048 5.26219C 0.552837 4.86113 0.23709 4.33661 0.0910307 3.75546C -0.0550287 3.17431 -0.0247891 2.56283 0.177897 1.99893C 0.380583 1.43503 0.746541 0.944221 1.22915 0.589037C 1.71176 0.233853 2.28918 0.0303686 2.88784 0.00450543C 3.28035 -0.0170932 3.67326 0.0391144 4.04396 0.169896C 4.41467 0.300677 4.75587 0.503453 5.04794 0.766561C 5.34 1.02967 5.57718 1.34792 5.74582 1.70301C 5.91446 2.0581 6.01124 2.44303 6.03059 2.83565L 6.03059 2.83565Z"/>
<path id="path8_fill" d="M 18.6962 7.12238C 10.6836 7.12238 3.64131 4.24672 0 0C 1.41284 3.82041 3.96215 7.1163 7.30479 9.44404C 10.6474 11.7718 14.623 13.0196 18.6962 13.0196C 22.7695 13.0196 26.745 11.7718 30.0877 9.44404C 33.4303 7.1163 35.9796 3.82041 37.3925 4.0486e-13C 33.7601 4.24672 26.7445 7.12238 18.6962 7.12238Z"/>
<path id="path9_fill" d="M 18.6962 5.89725C 26.7089 5.89725 33.7512 8.77291 37.3925 13.0196C 35.9796 9.19922 33.4303 5.90333 30.0877 3.57559C 26.745 1.24785 22.7695 4.0486e-13 18.6962 0C 14.623 4.0486e-13 10.6474 1.24785 7.30479 3.57559C 3.96215 5.90333 1.41284 9.19922 0 13.0196C 3.64131 8.76401 10.648 5.89725 18.6962 5.89725Z"/>
<path id="path10_fill" d="M 7.59576 3.56656C 7.64276 4.31992 7.46442 5.07022 7.08347 5.72186C 6.70251 6.3735 6.13619 6.89698 5.45666 7.22561C 4.77713 7.55424 4.01515 7.67314 3.26781 7.56716C 2.52046 7.46117 1.82158 7.13511 1.26021 6.63051C 0.698839 6.12591 0.300394 5.46561 0.115637 4.73375C -0.0691191 4.00188 -0.0318219 3.23159 0.222777 2.52099C 0.477376 1.8104 0.93775 1.19169 1.54524 0.743685C 2.15274 0.295678 2.87985 0.0386595 3.63394 0.00537589C 4.12793 -0.0210471 4.62229 0.0501173 5.08878 0.214803C 5.55526 0.37949 5.98473 0.63447 6.35264 0.965179C 6.72055 1.29589 7.01971 1.69584 7.233 2.1422C 7.4463 2.58855 7.56957 3.07256 7.59576 3.56656L 7.59576 3.56656Z"/>
<path id="path11_fill" d="M 2.25061 4.37943C 1.81886 4.39135 1.39322 4.27535 1.02722 4.04602C 0.661224 3.81668 0.371206 3.48424 0.193641 3.09052C 0.0160762 2.69679 -0.0411078 2.25935 0.0292804 1.83321C 0.0996686 1.40707 0.294486 1.01125 0.589233 0.695542C 0.883981 0.37983 1.2655 0.158316 1.68581 0.0588577C 2.10611 -0.0406005 2.54644 -0.0135622 2.95143 0.136572C 3.35641 0.286707 3.70796 0.553234 3.96186 0.902636C 4.21577 1.25204 4.3607 1.66872 4.37842 2.10027C 4.39529 2.6838 4.18131 3.25044 3.78293 3.67715C 3.38455 4.10387 2.83392 4.35623 2.25061 4.37943Z"/>
</defs>
</svg>
